fs/clipboard_link_20_regular.svg

<svg viewBox="0 0 20 20" fill="none" xmlns="http://www.w3.org/2000/svg" height="1em" width="1em">
  <path d="M7.08535 3C7.29127 2.4174 7.84689 2 8.5 2H11.5C12.1531 2 12.7087 2.4174 12.9146 3H14.5C15.3284 3 16 3.67157 16 4.5V11H15V4.5C15 4.22386 14.7761 4 14.5 4H12.9146C12.7087 4.5826 12.1531 5 11.5 5H8.5C7.84689 5 7.29127 4.5826 7.08535 4H5.5C5.22386 4 5 4.22386 5 4.5V16.5C5 16.7761 5.22386 17 5.5 17H8.25606C8.3819 17.356 8.55127 17.6915 8.75777 18H5.5C4.67157 18 4 17.3284 4 16.5V4.5C4 3.67157 4.67157 3 5.5 3H7.08535ZM8.5 3C8.22386 3 8 3.22386 8 3.5C8 3.77614 8.22386 4 8.5 4H11.5C11.7761 4 12 3.77614 12 3.5C12 3.22386 11.7761 3 11.5 3H8.5ZM19 15.5C19 13.567 17.433 12 15.5 12L15.4101 12.0081C15.1769 12.0504 15 12.2545 15 12.5C15 12.7761 15.2239 13 15.5 13L15.6644 13.0053C16.9685 13.09 18 14.1745 18 15.5C18 16.8807 16.8807 18 15.5 18L15.4977 18.0046L15.4079 18.0131C15.1748 18.0565 14.9989 18.2614 15 18.5069C15.0013 18.783 15.2262 19.0059 15.5023 19.0046V19L15.6941 18.9948C17.5357 18.8951 19 17.3686 19 15.5ZM13 12.5C13 12.2239 12.7761 12 12.5 12L12.308 12.0052C10.4643 12.1049 9 13.6314 9 15.5C9 17.433 10.567 19 12.5 19L12.5899 18.9919C12.8231 18.9496 13 18.7455 13 18.5C13 18.2239 12.7761 18 12.5 18L12.3356 17.9947C11.0315 17.91 10 16.8255 10 15.5C10 14.1193 11.1193 13 12.5 13L12.5899 12.9919C12.8231 12.9496 13 12.7455 13 12.5ZM15.5002 15.0023L12.5002 15L12.4104 15.008C12.1771 15.0502 12.0001 15.2543 12 15.4998C11.9999 15.7759 12.2236 15.9999 12.4998 16L15.4998 16.0023L15.5897 15.9943C15.8229 15.9521 15.9999 15.748 16 15.5025C16.0001 15.2264 15.7764 15.0024 15.5002 15.0023Z" fill="#212121"/>
</svg>

<svg viewBox="0 0 20 20" fill="none" xmlns="http://www.w3.org/2000/svg" height="1em" width="1em">
  <path d="M7.085 3A1.5 1.5 0 0 1 8.5 2h3a1.5 1.5 0 0 1 1.415 1H14.5A1.5 1.5 0 0 1 16 4.5V11h-1V4.5a.5.5 0 0 0-.5-.5h-1.585A1.5 1.5 0 0 1 11.5 5h-3a1.5 1.5 0 0 1-1.415-1H5.5a.5.5 0 0 0-.5.5v12a.5.5 0 0 0 .5.5h2.756c.126.356.295.692.502 1H5.5A1.5 1.5 0 0 1 4 16.5v-12A1.5 1.5 0 0 1 5.5 3h1.585ZM8.5 3a.5.5 0 0 0 0 1h3a.5.5 0 0 0 0-1h-3ZM19 15.5a3.5 3.5 0 0 0-3.5-3.5l-.09.008a.5.5 0 0 0 .09.992l.164.005A2.5 2.5 0 0 1 15.5 18l-.002.005-.09.008a.5.5 0 0 0 .094.992V19l.192-.005A3.5 3.5 0 0 0 19 15.5Zm-6-3a.5.5 0 0 0-.5-.5l-.192.005A3.5 3.5 0 0 0 12.5 19l.09-.008A.5.5 0 0 0 12.5 18l-.164-.005A2.5 2.5 0 0 1 12.5 13l.09-.008A.5.5 0 0 0 13 12.5Zm2.5 2.502-3-.002-.09.008a.5.5 0 0 0 .09.992l3 .002.09-.008a.5.5 0 0 0-.09-.992Z" fill="#212121"/>
</svg>
